assets/1. Faces/Beaming face with smiling eyes/Color/beaming_face_with_smiling_eyes_color.svg

<svg width="100%" height="100%" viewBox="0 0 32 32" fill="none" xmlns="http://www.w3.org/2000/svg">
<path d="M15.9989 29.9978C25.3333 29.9978 29.9978 23.7303 29.9978 15.9989C29.9978 8.26751 25.3333 2 15.9989 2C6.66443 2 2 8.26751 2 15.9989C2 23.7303 6.66443 29.9978 15.9989 29.9978Z" fill="url(#paint0_radial_23_357)"/>
<path d="M15.9989 29.9978C25.3333 29.9978 29.9978 23.7303 29.9978 15.9989C29.9978 8.26751 25.3333 2 15.9989 2C6.66443 2 2 8.26751 2 15.9989C2 23.7303 6.66443 29.9978 15.9989 29.9978Z" fill="url(#paint1_radial_23_357)"/>
<path d="M15.9989 29.9978C25.3333 29.9978 29.9978 23.7303 29.9978 15.9989C29.9978 8.26751 25.3333 2 15.9989 2C6.66443 2 2 8.26751 2 15.9989C2 23.7303 6.66443 29.9978 15.9989 29.9978Z" fill="url(#paint2_radial_23_357)"/>
<path d="M15.9989 29.9978C25.3333 29.9978 29.9978 23.7303 29.9978 15.9989C29.9978 8.26751 25.3333 2 15.9989 2C6.66443 2 2 8.26751 2 15.9989C2 23.7303 6.66443 29.9978 15.9989 29.9978Z" fill="url(#paint3_radial_23_357)" fill-opacity="0.6"/>
<path d="M15.9989 29.9978C25.3333 29.9978 29.9978 23.7303 29.9978 15.9989C29.9978 8.26751 25.3333 2 15.9989 2C6.66443 2 2 8.26751 2 15.9989C2 23.7303 6.66443 29.9978 15.9989 29.9978Z" fill="url(#paint4_radial_23_357)"/>
<path d="M15.9989 29.9978C25.3333 29.9978 29.9978 23.7303 29.9978 15.9989C29.9978 8.26751 25.3333 2 15.9989 2C6.66443 2 2 8.26751 2 15.9989C2 23.7303 6.66443 29.9978 15.9989 29.9978Z" fill="url(#paint5_radial_23_357)"/>
<path d="M15.9989 29.9978C25.3333 29.9978 29.9978 23.7303 29.9978 15.9989C29.9978 8.26751 25.3333 2 15.9989 2C6.66443 2 2 8.26751 2 15.9989C2 23.7303 6.66443 29.9978 15.9989 29.9978Z" fill="url(#paint6_radial_23_357)"/>
<path d="M15.9989 29.9978C25.3333 29.9978 29.9978 23.7303 29.9978 15.9989C29.9978 8.26751 25.3333 2 15.9989 2C6.66443 2 2 8.26751 2 15.9989C2 23.7303 6.66443 29.9978 15.9989 29.9978Z" fill="url(#paint7_radial_23_357)"/>
<g opacity="0.5" filter="url(#filter0_f_23_357)">
<path d="M7.5 11.5C7.5 11.5 7.75 9.5 10 9.5C12.25 9.5 12.5 11.5 12.5 11.5" stroke="#9A4609" stroke-width="2" stroke-linecap="round"/>
</g>
<g opacity="0.5" filter="url(#filter1_f_23_357)">
<path d="M18.5 11.5C18.5 11.5 19 9.5 21 9.5C23 9.5 23.5 11.5 23.5 11.5" stroke="#9A4609" stroke-width="2" stroke-linecap="round"/>
</g>
<path d="M8 11C8 11 8.25 9 10.5 9C12.75 9 13 11 13 11" stroke="#43273B" stroke-width="2" stroke-linecap="round" stroke-linejoin="round"/>
<g opacity="0.26" filter="url(#filter2_f_23_357)">
<path d="M8.25 10.75C8.25 10.75 8.5 8.75 10.75 8.75C13 8.75 13.25 10.75 13.25 10.75" stroke="white" stroke-width="0.75" stroke-linecap="round" stroke-linejoin="round"/>
</g>
<path d="M19 11C19 11 19.5 9 21.5 9C23.5 9 24 11 24 11" stroke="#43273B" stroke-width="2" stroke-linecap="round" stroke-linejoin="round"/>
<g opacity="0.26" filter="url(#filter3_f_23_357)">
<path d="M19.25 10.75C19.25 10.75 19.5 8.75 21.75 8.75C24 8.75 24.25 10.75 24.25 10.75" stroke="white" stroke-width="0.75" stroke-linecap="round" stroke-linejoin="round"/>
</g>
<path d="M16 26C6 26 6 16 6 16H26C26 16 26 26 16 26Z" fill="url(#paint8_radial_23_357)"/>
<path d="M7.75883 19.7942L7 16H25L24.2412 19.7942C24.1009 20.4953 23.4853 21 22.7703 21H9.22971C8.51468 21 7.89906 20.4953 7.75883 19.7942Z" fill="url(#paint9_radial_23_357)"/>
<path d="M7.75883 19.7942L7 16H25L24.2412 19.7942C24.1009 20.4953 23.4853 21 22.7703 21H9.22971C8.51468 21 7.89906 20.4953 7.75883 19.7942Z" fill="url(#paint10_linear_23_357)"/>
<path fill-rule="evenodd" clip-rule="evenodd" d="M8.34287 22.7155C9.80043 24.5291 12.1648 26 16 26C19.8347 26 22.1989 24.5295 23.6565 22.7164L23.7606 22.1961C23.8843 21.5773 23.411 21 22.78 21H9.21958C8.58853 21 8.11524 21.5773 8.239 22.1961L8.34287 22.7155Z" fill="url(#paint11_linear_23_357)"/>
<defs>
<filter id="filter0_f_23_357" x="5" y="7" width="10" height="7.00012" filterUnits="userSpaceOnUse" color-interpolation-filters="sRGB">
<feFlood flood-opacity="0" result="BackgroundImageFix"/>
<feBlend mode="normal" in="SourceGraphic" in2="BackgroundImageFix" result="shape"/>
<feGaussianBlur stdDeviation="0.75" result="effect1_foregroundBlur_23_357"/>
</filter>
<filter id="filter1_f_23_357" x="15.9998" y="7" width="10.0005" height="7.00024" filterUnits="userSpaceOnUse" color-interpolation-filters="sRGB">
<feFlood flood-opacity="0" result="BackgroundImageFix"/>
<feBlend mode="normal" in="SourceGraphic" in2="BackgroundImageFix" result="shape"/>
<feGaussianBlur stdDeviation="0.75" result="effect1_foregroundBlur_23_357"/>
</filter>
<filter id="filter2_f_23_357" x="6.375" y="6.875" width="8.75" height="5.75006" filterUnits="userSpaceOnUse" color-interpolation-filters="sRGB">
<feFlood flood-opacity="0" result="BackgroundImageFix"/>
<feBlend mode="normal" in="SourceGraphic" in2="BackgroundImageFix" result="shape"/>
<feGaussianBlur stdDeviation="0.75" result="effect1_foregroundBlur_23_357"/>
</filter>
<filter id="filter3_f_23_357" x="17.375" y="6.875" width="8.75" height="5.75006" filterUnits="userSpaceOnUse" color-interpolation-filters="sRGB">
<feFlood flood-opacity="0" result="BackgroundImageFix"/>
<feBlend mode="normal" in="SourceGraphic" in2="BackgroundImageFix" result="shape"/>
<feGaussianBlur stdDeviation="0.75" result="effect1_foregroundBlur_23_357"/>
</filter>
<radialGradient id="paint0_radial_23_357" cx="0" cy="0" r="1" gradientUnits="userSpaceOnUse" gradientTransform="translate(25.5 9) rotate(132.839) scale(37.5033)">
<stop stop-color="#FFF478"/>
<stop offset="0.474827" stop-color="#FFB02E"/>
<stop offset="1" stop-color="#F70A8D"/>
</radialGradient>
<radialGradient id="paint1_radial_23_357" cx="0" cy="0" r="1" gradientUnits="userSpaceOnUse" gradientTransform="translate(25.5 9) rotate(131.878) scale(38.9487)">
<stop stop-color="#FFF478"/>
<stop offset="0.474827" stop-color="#FFB02E"/>
<stop offset="1" stop-color="#F70A8D"/>
</radialGradient>
<radialGradient id="paint2_radial_23_357" cx="0" cy="0" r="1" gradientUnits="userSpaceOnUse" gradientTransform="translate(16 12.5) rotate(101.31) scale(17.8466 22.8581)">
<stop offset="0.787821" stop-color="#F59639" stop-opacity="0"/>
<stop offset="0.972509" stop-color="#FF7DCE"/>
</radialGradient>
<radialGradient id="paint3_radial_23_357" cx="0" cy="0" r="1" gradientUnits="userSpaceOnUse" gradientTransform="translate(18 14) rotate(135) scale(41.0122)">
<stop offset="0.314853" stop-opacity="0"/>
<stop offset="1"/>
</radialGradient>
<radialGradient id="paint4_radial_23_357" cx="0" cy="0" r="1" gradientUnits="userSpaceOnUse" gradientTransform="translate(16 17) rotate(77.692) scale(28.1469)">
<stop offset="0.507903" stop-color="#7D6133" stop-opacity="0"/>
<stop offset="1" stop-color="#715B32"/>
</radialGradient>
<radialGradient id="paint5_radial_23_357" cx="0" cy="0" r="1" gradientUnits="userSpaceOnUse" gradientTransform="translate(16.5 16.5) rotate(55.7131) scale(13.3135 9.65032)">
<stop stop-color="#FFB849"/>
<stop offset="1" stop-color="#FFB847" stop-opacity="0"/>
</radialGradient>
<radialGradient id="paint6_radial_23_357" cx="0" cy="0" r="1" gradientUnits="userSpaceOnUse" gradientTransform="translate(20.5 18) rotate(9.86581) scale(11.6726)">
<stop stop-color="#FFA64B"/>
<stop offset="0.900412" stop-color="#FFAE46" stop-opacity="0"/>
</radialGradient>
<radialGradient id="paint7_radial_23_357" cx="0" cy="0" r="1" gradientUnits="userSpaceOnUse" gradientTransform="translate(17.5 15) rotate(43.9708) scale(59.0529)">
<stop offset="0.185425" stop-opacity="0"/>
<stop offset="1" stop-opacity="0.4"/>
</radialGradient>
<radialGradient id="paint8_radial_23_357" cx="0" cy="0" r="1" gradientUnits="userSpaceOnUse" gradientTransform="translate(15 25) rotate(-90) scale(9 18)">
<stop stop-color="#F70A8D"/>
<stop offset="1" stop-color="#89029C"/>
</radialGradient>
<radialGradient id="paint9_radial_23_357" cx="0" cy="0" r="1" gradientUnits="userSpaceOnUse" gradientTransform="translate(21.5 16) rotate(138.576) scale(11.3358)">
<stop stop-color="white"/>
<stop offset="1" stop-color="#ECCDFF"/>
</radialGradient>
<linearGradient id="paint10_linear_23_357" x1="16" y1="20" x2="16" y2="21.5" gradientUnits="userSpaceOnUse">
<stop stop-color="#E181F4" stop-opacity="0"/>
<stop offset="1" stop-color="#E181F4"/>
</linearGradient>
<linearGradient id="paint11_linear_23_357" x1="17.0509" y1="21" x2="15.7774" y2="25.2773" gradientUnits="userSpaceOnUse">
<stop stop-color="white"/>
<stop offset="1" stop-color="#ECCDFF"/>
</linearGradient>
</defs>
</svg>

<svg width="100%" height="100%" viewBox="0 0 32 32" xmlns="http://www.w3.org/2000/svg"><path fill="url(#a)" d="M15.999 29.998c9.334 0 13.999-6.268 13.999-14 0-7.73-4.665-13.998-14-13.998C6.665 2 2 8.268 2 15.999s4.664 13.999 13.999 13.999"/><path fill="url(#b)" d="M15.999 29.998c9.334 0 13.999-6.268 13.999-14 0-7.73-4.665-13.998-14-13.998C6.665 2 2 8.268 2 15.999s4.664 13.999 13.999 13.999"/><path fill="url(#c)" d="M15.999 29.998c9.334 0 13.999-6.268 13.999-14 0-7.73-4.665-13.998-14-13.998C6.665 2 2 8.268 2 15.999s4.664 13.999 13.999 13.999"/><path fill="url(#d)" fill-opacity=".6" d="M15.999 29.998c9.334 0 13.999-6.268 13.999-14 0-7.73-4.665-13.998-14-13.998C6.665 2 2 8.268 2 15.999s4.664 13.999 13.999 13.999"/><path fill="url(#e)" d="M15.999 29.998c9.334 0 13.999-6.268 13.999-14 0-7.73-4.665-13.998-14-13.998C6.665 2 2 8.268 2 15.999s4.664 13.999 13.999 13.999"/><path fill="url(#f)" d="M15.999 29.998c9.334 0 13.999-6.268 13.999-14 0-7.73-4.665-13.998-14-13.998C6.665 2 2 8.268 2 15.999s4.664 13.999 13.999 13.999"/><path fill="url(#g)" d="M15.999 29.998c9.334 0 13.999-6.268 13.999-14 0-7.73-4.665-13.998-14-13.998C6.665 2 2 8.268 2 15.999s4.664 13.999 13.999 13.999"/><path fill="url(#h)" d="M15.999 29.998c9.334 0 13.999-6.268 13.999-14 0-7.73-4.665-13.998-14-13.998C6.665 2 2 8.268 2 15.999s4.664 13.999 13.999 13.999"/><g filter="url(#i)" opacity=".5"><path stroke="#9A4609" stroke-linecap="round" stroke-width="2" d="M7.5 11.5s.25-2 2.5-2 2.5 2 2.5 2"/></g><g filter="url(#j)" opacity=".5"><path stroke="#9A4609" stroke-linecap="round" stroke-width="2" d="M18.5 11.5s.5-2 2.5-2 2.5 2 2.5 2"/></g><path stroke="#43273B" stroke-linecap="round" stroke-linejoin="round" stroke-width="2" d="M8 11s.25-2 2.5-2 2.5 2 2.5 2"/><g filter="url(#k)" opacity=".26"><path stroke="#fff" stroke-linecap="round" stroke-linejoin="round" stroke-width=".75" d="M8.25 10.75s.25-2 2.5-2 2.5 2 2.5 2"/></g><path stroke="#43273B" stroke-linecap="round" stroke-linejoin="round" stroke-width="2" d="M19 11s.5-2 2.5-2 2.5 2 2.5 2"/><g filter="url(#l)" opacity=".26"><path stroke="#fff" stroke-linecap="round" stroke-linejoin="round" stroke-width=".75" d="M19.25 10.75s.25-2 2.5-2 2.5 2 2.5 2"/></g><path fill="url(#m)" d="M16 26C6 26 6 16 6 16h20s0 10-10 10"/><path fill="url(#n)" d="M7.759 19.794 7 16h18l-.759 3.794A1.5 1.5 0 0 1 22.771 21H9.23a1.5 1.5 0 0 1-1.471-1.206"/><path fill="url(#o)" d="M7.759 19.794 7 16h18l-.759 3.794A1.5 1.5 0 0 1 22.771 21H9.23a1.5 1.5 0 0 1-1.471-1.206"/><path fill="url(#p)" fill-rule="evenodd" d="M8.343 22.716C9.8 24.528 12.165 26 16 26s6.199-1.47 7.657-3.284l.104-.52A1 1 0 0 0 22.78 21H9.22a1 1 0 0 0-.981 1.196z" clip-rule="evenodd"/><defs><radialGradient id="a" cx="0" cy="0" r="1" gradientTransform="rotate(132.839 10.786 10.065)scale(37.5033)" gradientUnits="userSpaceOnUse"><stop stop-color="#FFF478"/><stop offset=".475" stop-color="#FFB02E"/><stop offset="1" stop-color="#F70A8D"/></radialGradient><radialGradient id="b" cx="0" cy="0" r="1" gradientTransform="rotate(131.878 10.74 10.193)scale(38.9487)" gradientUnits="userSpaceOnUse"><stop stop-color="#FFF478"/><stop offset=".475" stop-color="#FFB02E"/><stop offset="1" stop-color="#F70A8D"/></radialGradient><radialGradient id="c" cx="0" cy="0" r="1" gradientTransform="rotate(101.31 2.876 12.808)scale(17.8466 22.8581)" gradientUnits="userSpaceOnUse"><stop offset=".788" stop-color="#F59639" stop-opacity="0"/><stop offset=".973" stop-color="#FF7DCE"/></radialGradient><radialGradient id="d" cx="0" cy="0" r="1" gradientTransform="matrix(-29 29 -29 -29 18 14)" gradientUnits="userSpaceOnUse"><stop offset=".315" stop-opacity="0"/><stop offset="1"/></radialGradient><radialGradient id="e" cx="0" cy="0" r="1" gradientTransform="rotate(77.692 -2.555 18.434)scale(28.1469)" gradientUnits="userSpaceOnUse"><stop offset=".508" stop-color="#7D6133" stop-opacity="0"/><stop offset="1" stop-color="#715B32"/></radialGradient><radialGradient id="f" cx="0" cy="0" r="1" gradientTransform="rotate(55.713 -7.36 23.86)scale(13.3135 9.65032)" gradientUnits="userSpaceOnUse"><stop stop-color="#FFB849"/><stop offset="1" stop-color="#FFB847" stop-opacity="0"/></radialGradient><radialGradient id="g" cx="0" cy="0" r="1" gradientTransform="matrix(11.49998 2 -2 11.49998 20.5 18)" gradientUnits="userSpaceOnUse"><stop stop-color="#FFA64B"/><stop offset=".9" stop-color="#FFAE46" stop-opacity="0"/></radialGradient><radialGradient id="h" cx="0" cy="0" r="1" gradientTransform="rotate(43.971 -9.827 29.173)scale(59.0529)" gradientUnits="userSpaceOnUse"><stop offset=".185" stop-opacity="0"/><stop offset="1" stop-opacity=".4"/></radialGradient><radialGradient id="m" cx="0" cy="0" r="1" gradientTransform="matrix(0 -9 18 0 15 25)" gradientUnits="userSpaceOnUse"><stop stop-color="#F70A8D"/><stop offset="1" stop-color="#89029C"/></radialGradient><radialGradient id="n" cx="0" cy="0" r="1" gradientTransform="rotate(138.576 7.725 12.065)scale(11.3358)" gradientUnits="userSpaceOnUse"><stop stop-color="#fff"/><stop offset="1" stop-color="#ECCDFF"/></radialGradient><filter id="i" width="10" height="7" x="5" y="7" color-interpolation-filters="sRGB" filterUnits="userSpaceOnUse"><feFlood flood-opacity="0" result="BackgroundImageFix"/><feBlend in="SourceGraphic" in2="BackgroundImageFix" result="shape"/><feGaussianBlur result="effect1_foregroundBlur_23_357" stdDeviation=".75"/></filter><filter id="j" width="10.001" height="7" x="16" y="7" color-interpolation-filters="sRGB" filterUnits="userSpaceOnUse"><feFlood flood-opacity="0" result="BackgroundImageFix"/><feBlend in="SourceGraphic" in2="BackgroundImageFix" result="shape"/><feGaussianBlur result="effect1_foregroundBlur_23_357" stdDeviation=".75"/></filter><filter id="k" width="8.75" height="5.75" x="6.375" y="6.875" color-interpolation-filters="sRGB" filterUnits="userSpaceOnUse"><feFlood flood-opacity="0" result="BackgroundImageFix"/><feBlend in="SourceGraphic" in2="BackgroundImageFix" result="shape"/><feGaussianBlur result="effect1_foregroundBlur_23_357" stdDeviation=".75"/></filter><filter id="l" width="8.75" height="5.75" x="17.375" y="6.875" color-interpolation-filters="sRGB" filterUnits="userSpaceOnUse"><feFlood flood-opacity="0" result="BackgroundImageFix"/><feBlend in="SourceGraphic" in2="BackgroundImageFix" result="shape"/><feGaussianBlur result="effect1_foregroundBlur_23_357" stdDeviation=".75"/></filter><linearGradient id="o" x1="16" x2="16" y1="20" y2="21.5" gradientUnits="userSpaceOnUse"><stop stop-color="#E181F4" stop-opacity="0"/><stop offset="1" stop-color="#E181F4"/></linearGradient><linearGradient id="p" x1="17.051" x2="15.777" y1="21" y2="25.277" gradientUnits="userSpaceOnUse"><stop stop-color="#fff"/><stop offset="1" stop-color="#ECCDFF"/></linearGradient></defs></svg>
